X:213
T: Cain O'Hara
N: O'Farrell's Pocket Companion v.3 (Sky ed. p.106)
N: "Irish"
M: 3/4
L: 1/8
Q: 200
K: G
G>E| D2 (3DEG (3GAB| AG E2 GE| D2 DE/G/ GA/B/| A4 G>A|
B2 d2 e/f/g| ed cB AG| G2 B2 d2| e4 dc| B2 d2 e/f/g| ed cB AG|
G2 Bd eg| Hg4 f2| ed B2 AG| AG E2 GE| D>E GB AG| G4 ||
